X: 634
T:Boys Of Blue Hill
M:4/4
L:1/8
R:Hornpipe
Z:Philippe Varlet
N:Posted to the woodenflute mailing list March 2003
N:abc headers added Steve Mansfield
K:D
FA|BAFA D2FA|BA (3Bcd e2de|faaf egfe|dfed B2dB|
BAFA D2FA|BA (3Bcd e2de|faaf egfe|d2 dc d2 :||
fg|afdf a2af|gfga b2ag|faaf egfe|dfed B2dB|
BAFA D2FA|BA (3Bcd e2de|faaf egfe|d2 dc d2 :||
<end>
<start>
